src/ui/icons/weather/73.svg

<?xml version="1.0" encoding="UTF-8"?>
<svg width="40px" height="40px" viewBox="0 0 40 40" version="1.1" xmlns="http://www.w3.org/2000/svg" xmlns:xlink="http://www.w3.org/1999/xlink">
    <title>46</title>
    <g id="Page-1" stroke="none" stroke-width="1" fill="none" fill-rule="evenodd">
        <g id="icons-day" transform="translate(-2365.000000, -6.000000)" fill-rule="nonzero">
            <g id="icons" transform="translate(25.000000, 6.000000)">
                <g id="46" transform="translate(2340.000000, 3.400000)">
                    <path d="M10.6959238,5.99771429 C11.200451,5.99771429 11.6864061,6.0772447 12.141936,6.22445253 L12.2640706,6.26668023 C11.1826923,7.64874187 10.4843822,9.34501641 10.3289637,11.1957333 L10.3289637,11.1957333 L9.79656655,11.1957333 C8.48858143,11.1957333 7.27543364,11.6006703 6.27554742,12.2919862 C6.09588545,11.7940872 5.99771429,11.2564681 5.99771429,10.6959238 C5.99771429,8.10121265 8.10121265,5.99771429 10.6959238,5.99771429 Z" id="Combined-Shape" fill="#FED100"></path>
                    <rect id="Rectangle" fill="#FED100" x="0" y="9.89622857" width="4.49828571" height="1.59939048" rx="0.799695238"></rect>
                    <rect id="Rectangle" fill="#FED100" transform="translate(4.723126, 4.723160) rotate(45.000000) translate(-4.723126, -4.723160) " x="2.473983" y="3.92346459" width="4.49828571" height="1.59939048" rx="0.799695238"></rect>
                    <rect id="Rectangle" fill="#FED100" x="9.89622857" y="0" width="1.59939048" height="4.49828571" rx="0.799695238"></rect>
                    <g id="Group" transform="translate(5.098057, 4.198400)" fill="#FFFFFF">
                        <path d="M6.296,17.901 L6.2968381,19.3926095 L6.195,19.392 L6.19535286,17.9016 L6.296,17.901 Z M14.4815811,-9.76996262e-15 C17.1689426,-9.76996262e-15 19.5949664,1.37399785 21.0019602,3.52806914 L20.915,3.401 L20.8370702,3.40234076 C17.3001272,3.50397344 14.4301123,5.72885723 14.0187046,9.15002774 L13.9935238,9.39641905 C11.7871646,9.39641905 9.6951619,11.1957333 9.19535238,12.9950476 L9.19535238,12.9950476 L9.20967092,12.9984301 C9.20027765,13.0458284 9.19535238,13.0948342 9.19535238,13.1449905 C9.19535238,13.5590462 9.5310109,13.8947048 9.94506667,13.8947048 C10.3252943,13.8947048 10.6394115,13.611652 10.6880671,13.2449399 C11.1169893,12.0377431 12.6292214,10.8958476 13.9935238,10.8958476 L13.9935238,10.8958476 L15.3717986,10.8958476 L15.4876544,9.52237105 C15.7190662,6.77801691 18.0035956,4.89813333 21.090819,4.89813333 C23.4981016,4.89813333 25.6086973,6.41275611 26.3985963,8.63710842 L26.3985963,8.63710842 L26.8145378,9.80846202 L28.0427697,9.61683505 C28.2579877,9.58324785 28.4771042,9.56625432 28.6990196,9.56625432 C31.0130377,9.56625432 32.8863238,11.4316434 32.8863238,13.7297676 C32.8863238,16.0276919 31.0130377,17.893181 28.6990196,17.893181 L28.6990196,17.893181 L24.7068221,17.893181 L24.7065714,17.9015714 L23.790936,17.9022102 C23.793049,17.5282465 23.6995653,17.1488049 23.5006889,16.8015872 C23.1993596,16.2754971 22.7142672,15.9235045 22.1750351,15.7778207 L22.1750351,15.7778207 L21.9924461,15.7367528 C21.6852902,15.6813108 21.3653992,15.6912982 21.0548159,15.7728204 L21.0548159,15.7728204 L21.0359429,15.7786 L21.0191259,15.7027929 C20.9179457,15.3331315 20.7226195,15.0028625 20.4612837,14.7394641 C20.0650212,14.3400742 19.5172974,14.0940571 18.9128302,14.0940571 C18.3084228,14.0940571 17.760664,14.3400789 17.3643759,14.739553 L17.3643759,14.739553 L17.2393619,14.8766915 C17.0406047,15.1141181 16.8909303,15.3947978 16.8066247,15.7028301 L16.8066247,15.7028301 L16.7859429,15.7906 L16.7292601,15.7728154 C16.3565691,15.674988 15.9704947,15.6801773 15.6090908,15.7778174 C15.0700232,15.9234568 14.5849856,16.275306 14.2835575,16.8012901 C14.0845231,17.1488889 13.9910317,17.5284299 13.9931494,17.9023715 L13.9931494,17.9023715 L13.8215714,17.9015714 L13.0489921,15.9451691 L12.9590438,15.7328494 C12.773898,15.3250008 12.5590128,15.0170361 12.3460004,14.7934652 C11.8503938,14.2732925 11.3035196,14.0940696 10.7944486,14.0940696 C10.2853059,14.0940696 9.73841615,14.2733838 9.24287949,14.7934534 C8.99428699,15.0543531 8.74320197,15.4301232 8.5398542,15.9451738 L8.5398542,15.9451738 L7.76657143,17.9015714 L6.296,17.901 L6.2968381,17.893181 L4.69850941,17.893181 C2.10319848,17.893181 -4.1855408e-13,15.7901824 -4.1855408e-13,13.1949714 C-4.1855408e-13,10.5999604 2.10309851,8.4967619 4.69850941,8.4967619 L4.69850941,8.4967619 L6.60968107,8.4967619 L6.72513707,7.12278552 C7.06200869,3.11111436 10.4288256,-9.76996262e-15 14.4815811,-9.76996262e-15 Z" id="Combined-Shape"></path>
                    </g>
                    <g id="Group" transform="translate(8.695924, 19.792457)" fill="#FFFFFF">
                        <path d="M21.3220742,9.84474819 L20.5654626,10.2814818 C20.3853042,10.3866038 20.1626644,10.3872721 19.9818782,10.2832335 C19.801092,10.179195 19.6898086,9.98636102 19.6901816,9.77777644 C19.6905546,9.56919186 19.8025271,9.37675719 19.9836843,9.27336594 L20.7274008,8.84402956 L19.9836843,8.41469318 C19.8006718,8.3122404 19.6869436,8.11923799 19.6859903,7.90950189 C19.6850489,7.69976579 19.797029,7.5057439 19.9791085,7.40164208 C20.161188,7.29754026 20.3851977,7.29946392 20.5654626,7.40667733 L21.3221742,7.84331093 L21.3221742,6.97954011 C21.3194254,6.76981961 21.4297352,6.57484287 21.6109143,6.4691811 C21.7920933,6.36351933 22.0161115,6.36351933 22.1972905,6.4691811 C22.3784696,6.57484287 22.4887794,6.76981961 22.4860306,6.97954011 L22.4860306,7.82901638 L23.2177518,7.40667733 C23.3979601,7.30041377 23.6213377,7.29905059 23.8028295,7.40310684 C23.9843214,7.5071631 24.0959978,7.70062565 24.0953391,7.90983023 C24.0946745,8.11903481 23.9817765,8.31178705 23.79963,8.41469318 L23.0559134,8.84402956 L23.79963,9.27336594 C23.9807872,9.37675719 24.0927597,9.56919186 24.0931327,9.77777644 C24.0935057,9.98636102 23.9822223,10.179195 23.8014361,10.2832335 C23.6206499,10.3872721 23.3980101,10.3866038 23.2178517,10.2814818 L22.4860306,9.85904274 L22.4860306,10.713717 C22.4860306,11.0351347 22.2254701,11.2956952 21.9040524,11.2956952 C21.5826347,11.2956952 21.3220742,11.0351347 21.3220742,10.713717 L21.3220742,9.84474819 L21.3220742,9.84474819 Z M14.6311241,5.05857219 L12.9213757,6.05319314 C12.5942004,6.24352061 12.1759598,6.1304637 11.9871317,5.80078933 C11.7983037,5.47111497 11.910461,5.04957562 12.2376363,4.85924815 L13.9471848,3.90601143 L12.2376363,2.89459688 C11.910461,2.70426941 11.7983037,2.28283002 11.9871317,1.9530557 C12.1760597,1.62338133 12.5942004,1.51032442 12.9213757,1.70065189 L14.6311241,2.69527284 L14.6311241,0.689337295 C14.6311241,0.3085824 14.9373074,7.10542736e-15 15.3149635,7.10542736e-15 C15.6927195,7.10542736e-15 15.9989029,0.3085824 15.9989029,0.689337295 L15.9989029,2.67108206 L17.6669672,1.70065189 C17.9941425,1.51032442 18.4123831,1.62338133 18.6012111,1.9530557 C18.7900392,2.28273006 18.6778819,2.70426941 18.3507066,2.89469684 L16.6827422,3.90601143 L18.3507066,4.85924815 C18.6778819,5.04957562 18.7900392,5.47101501 18.6012111,5.8008893 C18.4122831,6.1304637 17.9941425,6.24352061 17.6669672,6.05319314 L15.9989029,5.08276297 L15.9989029,7.00772937 C15.9989029,7.38848427 15.6927195,7.69706667 15.3149635,7.69706667 C14.9373074,7.69706667 14.6311241,7.38848427 14.6311241,7.00772937 L14.6311241,5.05847223 L14.6311241,5.05857219 Z M14.6896018,14.0950284 L13.1306959,14.9992838 C12.9874488,15.0822977 12.817012,15.1047622 12.6571474,15.0617001 C12.4972827,15.018638 12.3611895,14.9136047 12.2790205,14.7698712 C12.1067861,14.4700855 12.2090472,14.0868315 12.5073335,13.9138974 L14.0660395,13.0472277 L12.5073335,12.1278781 C12.2090472,11.954844 12.1067861,11.5715901 12.2789205,11.2719043 C12.3610729,11.1281267 12.4971769,11.0230525 12.6570672,10.9799697 C12.8169575,10.936887 12.9874277,10.9593542 13.1306959,11.0423918 L14.6896018,11.9466472 L14.6896018,10.1231421 C14.6896018,9.77707398 14.9687954,9.49648091 15.3131642,9.49648091 C15.657533,9.49648091 15.9367266,9.77707398 15.9367266,10.1231421 L15.9367266,11.9247555 L17.4576469,11.0424917 C17.6009062,10.959486 17.7713522,10.9370367 17.9312183,10.980118 C18.0910844,11.0231993 18.2271701,11.1282539 18.3093224,11.2720043 C18.4815567,11.5716901 18.3792957,11.954944 18.0810094,12.1279781 L16.560189,13.0473277 L18.0810094,13.9139974 C18.3792957,14.0869315 18.4815567,14.4701854 18.3094223,14.7699712 C18.2272531,14.9137318 18.0911417,15.0187848 17.9312529,15.0618484 C17.7713641,15.104912 17.600903,15.0824296 17.4576469,14.9993838 L15.9367266,14.11722 L15.9367266,15.8671531 C15.9367266,16.2132212 15.657533,16.4938142 15.3131642,16.4938142 C14.9687954,16.4938142 14.6896018,16.2132212 14.6896018,15.8671531 L14.6896018,14.0951284 L14.6896018,14.0950284 Z" id="Shape"></path>
                        <path d="M3.0404413,9.17710263 C3.1450718,9.39635816 3.19918033,9.63629396 3.19878315,9.87923505 C3.19878315,10.7718949 2.48275383,11.495619 1.59939048,11.495619 C0.716027124,11.495619 0,10.7718949 0,9.87923505 C0,9.6319293 0.0549790476,9.39761859 0.1532416,9.18799848 L1.04890027,6.88387657 C1.35278446,6.10247436 1.84489691,6.10187459 2.14888107,6.88387657 L3.0404413,9.17710263 L3.0404413,9.17710263 Z M9.44889905,4.4301117 C9.61222704,4.76674971 9.6968304,5.13613309 9.6963072,5.51030004 C9.6963072,6.88357669 8.57743116,7.99695238 7.19725714,7.99695238 C5.81708312,7.99695238 4.69820952,6.88357669 4.69820952,5.51030004 C4.69820952,5.12974507 4.78417676,4.76918248 4.93761829,4.44670537 L6.33718491,0.901956267 C6.81180404,-0.3001856 7.58091093,-0.301085257 8.0559299,0.901956267 L9.44889905,4.4301117 L9.44889905,4.4301117 Z M9.17870202,13.3727037 C9.32237626,13.6670336 9.39684649,13.9903192 9.39642088,14.3178435 C9.39642088,15.5195855 8.41179429,16.4937143 7.19725714,16.4937143 C5.98272,16.4937143 4.99809524,15.5195855 4.99809524,14.3178435 C4.99809524,13.9849704 5.07366644,13.6693906 5.20881493,13.3871982 L6.4403456,10.2855802 C6.8580864,9.23378103 7.53492846,9.23298133 7.95276922,10.2855802 L9.17870202,13.3727037 L9.17870202,13.3727037 Z" id="Shape"></path>
                    </g>
                </g>
            </g>
        </g>
    </g>
</svg>

<svg id="icon-icon_weather_73" width="40" height="40" viewBox="0 0 40 40">
    <g fill="none" fill-rule="evenodd">
        <g fill-rule="nonzero">
            <g>
                <g>
                    <path fill="#FED100" d="M10.696 15.394c-2.595 0-4.698-2.103-4.698-4.698S8.1 5.998 10.696 5.998s4.698 2.103 4.698 4.698-2.103 4.698-4.698 4.698z" transform="translate(-2365 -6) translate(25 6) translate(2340 3.4)"/>
                    <path fill="#333" d="M10.696 14.195c1.932 0 3.499-1.567 3.499-3.5 0-1.931-1.567-3.498-3.5-3.498-1.931 0-3.498 1.567-3.498 3.499 0 1.932 1.567 3.499 3.499 3.499zm0 1.2c-2.595 0-4.698-2.104-4.698-4.7 0-2.594 2.103-4.697 4.698-4.697s4.698 2.103 4.698 4.698-2.103 4.698-4.698 4.698z" transform="translate(-2365 -6) translate(25 6) translate(2340 3.4)"/>
                    <g transform="translate(-2365 -6) translate(25 6) translate(2340 3.4) translate(0 9.896)">
                        <rect width="4.498" height="1.599" fill="#333" rx=".8"/>
                        <rect width="4.498" height="1.599" x="16.894" fill="#FFA000" rx=".8"/>
                    </g>
                    <g transform="translate(-2365 -6) translate(25 6) translate(2340 3.4) rotate(45 -1.245 5.755)">
                        <rect width="4.498" height="1.599" x="-.003" y=".005" fill="#333" rx=".8"/>
                        <rect width="4.498" height="1.599" x="16.89" y=".005" fill="#FFA000" rx=".8"/>
                    </g>
                    <g transform="translate(-2365 -6) translate(25 6) translate(2340 3.4) translate(9.896)">
                        <rect width="1.599" height="4.498" fill="#333" rx=".8"/>
                        <rect width="1.599" height="4.498" y="16.994" fill="#FFA000" rx=".8"/>
                    </g>
                    <g transform="translate(-2365 -6) translate(25 6) translate(2340 3.4) translate(3.599 2.699)">
                        <path fill="#FFF" d="M7.228 9.038l-.038.458h-.992C3.05 9.496.5 12.047.5 15.194c0 3.148 2.55 5.698 5.698 5.698H25.89c3.81 0 3.81-13.795 0-13.795-.363 0-.723.028-1.077.084l-.41.064-.139-.391C23.034 3.374 19.734 1 15.981 1c-4.574 0-8.372 3.51-8.753 8.038z"/>
                        <path fill="#333" d="M24.968 7.669l-1.23.193-.416-1.175C22.232 3.603 19.306 1.5 15.981 1.5c-4.053 0-7.42 3.112-7.756 7.123l-.116 1.374H6.198c-2.595 0-4.699 2.103-4.699 4.698 0 2.596 2.104 4.699 4.699 4.699h1.598v1.499H6.198C2.775 20.892 0 18.118 0 14.694c0-3.422 2.774-6.197 6.198-6.197h.532C7.13 3.737 11.12 0 15.981 0c4.041 0 7.48 2.582 8.755 6.187.382-.06.535 1.434.232 1.482z"/>
                        <path fill="#FFF" d="M22.572 5.598c-3.509 0-6.423 2.7-6.715 6.183l-.03.352h-.76c-2.415 0-4.372 1.962-4.372 4.382s1.957 4.382 4.371 4.382h15.108c2.922 0 5.291-2.375 5.291-5.305 0-2.93-2.369-5.304-5.291-5.304-.279 0-.555.021-.826.064l-.315.05-.106-.302c-.945-2.676-3.477-4.502-6.355-4.502z"/>
                        <path fill="#333" d="M30.198 19.393c2.314 0 4.188-1.866 4.188-4.164 0-2.298-1.874-4.163-4.188-4.163-.221 0-.44.017-.656.05l-1.228.192-.416-1.171c-.79-2.225-2.9-3.74-5.308-3.74-3.087 0-5.372 1.88-5.603 4.625l-.116 1.373h-1.378c-1.421 0-3.003 1.24-3.353 2.5l-1.445-.4c.5-1.8 2.592-3.6 4.798-3.6.307-3.642 3.36-5.997 7.097-5.997 3.107 0 5.74 1.977 6.721 4.737.294-.046.59-.069.887-.069 3.141 0 5.687 2.536 5.687 5.663 0 3.128-2.546 5.663-5.687 5.663h-3.992v-1.5h3.992z"/>
                        <circle cx="26.139" cy="20.142" r="1" fill="#333"/>
                        <circle cx="7.746" cy="20.142" r="1" fill="#333"/>
                        <circle cx="11.444" cy="14.644" r="1" fill="#333"/>
                    </g>
                    <g fill="#333">
                        <path d="M21.322 9.845l-.757.436c-.18.106-.402.106-.583.002-.18-.104-.292-.297-.292-.505 0-.209.113-.401.294-.505l.743-.429-.743-.43c-.183-.102-.297-.295-.298-.504-.001-.21.111-.404.293-.508.182-.104.406-.103.586.005l.757.436V6.98c-.003-.21.108-.405.289-.51.181-.106.405-.106.586 0 .181.105.292.3.289.51v.849l.732-.422c.18-.107.403-.108.585-.004.181.104.293.298.292.507 0 .209-.113.402-.295.505l-.744.429.744.43c.18.103.293.295.293.504 0 .208-.11.401-.292.505-.18.104-.403.104-.583-.002l-.732-.422v.855c0 .321-.26.582-.582.582-.321 0-.582-.26-.582-.582v-.87zm-6.69-4.786l-1.71.994c-.328.19-.746.077-.935-.252-.189-.33-.077-.751.25-.942l1.71-.953-1.71-1.011c-.327-.19-.439-.612-.25-.942.19-.33.607-.443.934-.252l1.71.994V.69c0-.38.306-.689.684-.689.378 0 .684.309.684.69V2.67l1.668-.97c.327-.19.745-.078.934.252.189.33.077.751-.25.942l-1.668 1.011 1.668.953c.327.19.439.612.25.942-.189.33-.607.443-.934.252l-1.668-.97v1.925c0 .38-.306.69-.684.69-.378 0-.684-.31-.684-.69v-1.95zm.058 9.036l-1.56.904c-.143.083-.313.106-.473.063-.16-.043-.296-.148-.378-.292-.172-.3-.07-.683.228-.856l1.559-.867-1.559-.92c-.298-.172-.4-.555-.228-.855.082-.144.218-.249.378-.292.16-.043.33-.02.474.062l1.559.905v-1.824c0-.346.279-.627.623-.627.345 0 .624.281.624.627v1.802l1.52-.883c.144-.083.314-.105.474-.062.16.043.296.148.378.292.173.3.07.683-.228.856l-1.52.92 1.52.866c.298.173.4.556.228.856-.082.144-.218.249-.378.292-.16.043-.33.02-.473-.063l-1.521-.882v1.75c0 .346-.28.627-.624.627s-.623-.28-.623-.627v-1.772zM3.04 9.177c.105.22.16.46.159.702 0 .893-.716 1.617-1.6 1.617C.716 11.496 0 10.772 0 9.879c0-.247.055-.481.153-.691l.896-2.304c.304-.782.796-.782 1.1 0l.891 2.293zM9.45 4.43c.163.337.248.706.247 1.08 0 1.374-1.119 2.487-2.499 2.487-1.38 0-2.499-1.113-2.499-2.487 0-.38.086-.74.24-1.063l1.4-3.545C6.811-.3 7.58-.301 8.055.902L9.449 4.43zm-.27 8.943c.143.294.218.617.217.945 0 1.202-.984 2.176-2.199 2.176-1.214 0-2.199-.974-2.199-2.176 0-.333.076-.649.21-.93l1.232-3.102c.418-1.052 1.095-1.053 1.513 0l1.226 3.087z" transform="translate(-2365 -6) translate(25 6) translate(2340 3.4) translate(8.696 19.792)"/>
                    </g>
                </g>
            </g>
        </g>
    </g>
</svg>
